src/assets/posts/docs-categorization-with-gpt-4/mintlify-logo.svg

<svg fill="none" height="484" viewBox="0 0 2191 484" width="2191" xmlns="http://www.w3.org/2000/svg" xmlns:xlink="http://www.w3.org/1999/xlink"><clipPath id="a"><path d="m0 0h2191v484h-2191z"/></clipPath><clipPath id="b"><path d="m7 8h470v470h-470z"/></clipPath><g clip-path="url(#a)"><path d="m622.759 61.7273h97.959l83.096 202.6277h3.835l83.097-202.6277h97.958v327.2727h-77.024v-201.03h-2.717l-78.622 198.953h-49.219l-78.622-200.071h-2.716v202.148h-77.025zm397.281 327.2727v-245.455h78.15v245.455zm39.15-274.059c-10.97 0-20.4-3.622-28.28-10.866-7.88-7.3513-11.83-16.1936-11.83-26.5274 0-10.2273 3.95-18.9631 11.83-26.2074 7.88-7.3509 17.31-11.0263 28.28-11.0263 11.08 0 20.51 3.6754 28.29 11.0263 7.88 7.2443 11.82 15.9801 11.82 26.2074 0 10.3338-3.94 19.1761-11.82 26.5274-7.78 7.244-17.21 10.866-28.29 10.866zm148.88 134.073v139.986h-78.15v-245.455h74.31v45.064h2.72c5.43-15.021 14.7-26.793 27.8-35.316 13.11-8.629 28.71-12.944 46.82-12.944 17.26 0 32.23 3.889 44.91 11.666 12.78 7.67 22.69 18.43 29.72 32.28 7.14 13.743 10.66 29.829 10.55 48.26v156.445h-78.14v-141.104c.1-13.637-3.36-24.29-10.39-31.961-6.93-7.67-16.57-11.505-28.93-11.505-8.2 0-15.44 1.811-21.73 5.433-6.18 3.516-10.97 8.576-14.38 15.181-3.3 6.605-5.01 14.595-5.11 23.97zm327.61-105.469v57.529h-154.85v-57.529zm-122.41-58.8064h78.14v227.0774c0 4.794.75 8.683 2.24 11.666 1.6 2.876 3.89 4.953 6.87 6.232 2.98 1.172 6.55 1.758 10.71 1.758 2.98 0 6.12-.267 9.42-.799 3.41-.64 5.97-1.172 7.68-1.598l11.82 56.409c-3.73 1.066-9 2.397-15.82 3.995-6.71 1.598-14.75 2.61-24.13 3.037-18.32.852-34.04-1.279-47.14-6.392-13-5.221-22.96-13.317-29.88-24.29-6.82-10.973-10.12-24.769-9.91-41.389zm227.69-23.0113v327.2727h-78.14v-327.2727zm31.74 327.2727v-245.455h78.14v245.455zm39.15-274.059c-10.97 0-20.4-3.622-28.28-10.866-7.89-7.3513-11.83-16.1936-11.83-26.5274 0-10.2273 3.94-18.9631 11.83-26.2074 7.88-7.3509 17.31-11.0263 28.28-11.0263 11.08 0 20.51 3.6754 28.29 11.0263 7.88 7.2443 11.82 15.9801 11.82 26.2074 0 10.3338-3.94 19.1761-11.82 26.5274-7.78 7.244-17.21 10.866-28.29 10.866zm210.24 28.604v57.529h-157.89v-57.529zm-124.97 245.455v-257.919c0-18.963 3.57-34.6769 10.71-47.1414 7.14-12.571 17.05-21.946 29.72-28.125 12.68-6.2855 27.33-9.4283 43.95-9.4283 10.87 0 21.09.8523 30.68 2.5569 9.7 1.598 16.89 3.0362 21.57 4.3146l-12.46 57.2092c-2.88-.959-6.39-1.758-10.55-2.397-4.05-.64-7.88-.959-11.5-.959-9.17 0-15.45 2.024-18.86 6.072-3.41 4.049-5.11 9.588-5.11 16.62v259.197zm192.34 92.045c-9.37 0-18.22-.745-26.53-2.237-8.3-1.385-15.44-3.249-21.41-5.593l17.26-56.729c7.67 2.557 14.6 4.048 20.77 4.474 6.29.426 11.67-.586 16.14-3.036 4.59-2.344 8.1-6.552 10.55-12.624l3.04-7.351-87.25-254.404h81.81l45.23 175.143h2.55l45.87-175.143h82.29l-92.52 268.946c-4.47 13.423-10.81 25.248-19.02 35.476-8.09 10.333-18.59 18.43-31.48 24.289-12.78 5.86-28.55 8.789-47.3 8.789z" fill="#0f172a"/><g clip-path="url(#b)"><path d="m130.833 179.492c.328-44.758 18.078-87.6274 49.485-119.5174h-.058l-121.2537 121.2534h.0578c-.4513.356-.8769.742-1.2733 1.158-29.4887 29.45-47.3674 68.548-50.35486 110.117-2.98744 41.568 9.11676 82.821 34.09126 116.185l122.4688-122.469 1.274-1.216c-22.826-30.397-34.936-67.501-34.437-105.511z" fill="#0c8c5e"/><path d="m425.257 304.971c-23.207 22.743-52.338 38.508-84.072 45.498-31.733 6.989-64.792 4.921-95.407-5.968-16.323-5.794-31.664-14.05-45.492-24.482l-1.273 1.273-122.4691 122.412c33.3781 24.912 74.6071 36.978 116.1501 33.991 41.543-2.986 80.622-20.825 110.094-50.255l1.215-1.215z" fill="#0c8c5e"/><path d="m477.232 181.228v-165.2279c0-4.4183-3.582-8.00001-8-8.00001h-165.228c-22.751-.0228-45.282 4.44961-66.299 13.16041s-40.106 21.4882-56.171 37.5984l-1.215 1.2154c-21.175 21.4964-36.324 48.1827-43.929 77.3827 13.767-3.565 27.915-5.45 42.135-5.614 38.011-.448 75.105 11.679 105.511 34.495 27.327 20.379 48.009 48.392 59.44 80.508 11.65 32.825 13.182 68.391 4.399 102.096 29.205-7.592 55.894-22.744 77.382-43.929l1.216-1.158c16.117-16.071 28.898-35.169 37.609-56.197 8.711-21.027 13.18-43.569 13.15-66.33z" fill="#18e299"/></g></g></svg>

<svg width="2191" height="484" viewBox="0 0 2191 484" fill="none" xmlns="http://www.w3.org/2000/svg">
<g clip-path="url(#clip0_1656_31)">
<path d="M622.759 61.7273H720.718L803.814 264.355H807.649L890.746 61.7273H988.704V389H911.68V187.97H908.963L830.341 386.923H781.122L702.5 186.852H699.784V389H622.759V61.7273ZM1020.04 389V143.545H1098.19V389H1020.04ZM1059.19 114.941C1048.22 114.941 1038.79 111.319 1030.91 104.075C1023.03 96.7237 1019.08 87.8814 1019.08 77.5476C1019.08 67.3203 1023.03 58.5845 1030.91 51.3402C1038.79 43.9893 1048.22 40.3139 1059.19 40.3139C1070.27 40.3139 1079.7 43.9893 1087.48 51.3402C1095.36 58.5845 1099.3 67.3203 1099.3 77.5476C1099.3 87.8814 1095.36 96.7237 1087.48 104.075C1079.7 111.319 1070.27 114.941 1059.19 114.941ZM1208.07 249.014V389H1129.92V143.545H1204.23V188.609H1206.95C1212.38 173.588 1221.65 161.816 1234.75 153.293C1247.86 144.664 1263.46 140.349 1281.57 140.349C1298.83 140.349 1313.8 144.238 1326.48 152.015C1339.26 159.685 1349.17 170.445 1356.2 184.295C1363.34 198.038 1366.86 214.124 1366.75 232.555V389H1288.61V247.896C1288.71 234.259 1285.25 223.606 1278.22 215.935C1271.29 208.265 1261.65 204.43 1249.29 204.43C1241.09 204.43 1233.85 206.241 1227.56 209.863C1221.38 213.379 1216.59 218.439 1213.18 225.044C1209.88 231.649 1208.17 239.639 1208.07 249.014ZM1535.68 143.545V201.074H1380.83V143.545H1535.68ZM1413.27 84.7386H1491.41V311.816C1491.41 316.61 1492.16 320.499 1493.65 323.482C1495.25 326.358 1497.54 328.435 1500.52 329.714C1503.5 330.886 1507.07 331.472 1511.23 331.472C1514.21 331.472 1517.35 331.205 1520.65 330.673C1524.06 330.033 1526.62 329.501 1528.33 329.075L1540.15 385.484C1536.42 386.55 1531.15 387.881 1524.33 389.479C1517.62 391.077 1509.58 392.089 1500.2 392.516C1481.88 393.368 1466.16 391.237 1453.06 386.124C1440.06 380.903 1430.1 372.807 1423.18 361.834C1416.36 350.861 1413.06 337.065 1413.27 320.445V84.7386ZM1640.96 61.7273V389H1562.82V61.7273H1640.96ZM1672.7 389V143.545H1750.84V389H1672.7ZM1711.85 114.941C1700.88 114.941 1691.45 111.319 1683.57 104.075C1675.68 96.7237 1671.74 87.8814 1671.74 77.5476C1671.74 67.3203 1675.68 58.5845 1683.57 51.3402C1691.45 43.9893 1700.88 40.3139 1711.85 40.3139C1722.93 40.3139 1732.36 43.9893 1740.14 51.3402C1748.02 58.5845 1751.96 67.3203 1751.96 77.5476C1751.96 87.8814 1748.02 96.7237 1740.14 104.075C1732.36 111.319 1722.93 114.941 1711.85 114.941ZM1922.09 143.545V201.074H1764.2V143.545H1922.09ZM1797.12 389V131.081C1797.12 112.118 1800.69 96.4041 1807.83 83.9396C1814.97 71.3686 1824.88 61.9936 1837.55 55.8146C1850.23 49.5291 1864.88 46.3863 1881.5 46.3863C1892.37 46.3863 1902.59 47.2386 1912.18 48.9432C1921.88 50.5412 1929.07 51.9794 1933.75 53.2578L1921.29 110.467C1918.41 109.508 1914.9 108.709 1910.74 108.07C1906.69 107.43 1902.86 107.111 1899.24 107.111C1890.07 107.111 1883.79 109.135 1880.38 113.183C1876.97 117.232 1875.27 122.771 1875.27 129.803V389H1797.12ZM1989.46 481.045C1980.09 481.045 1971.24 480.3 1962.93 478.808C1954.63 477.423 1947.49 475.559 1941.52 473.215L1958.78 416.486C1966.45 419.043 1973.38 420.534 1979.55 420.96C1985.84 421.386 1991.22 420.374 1995.69 417.924C2000.28 415.58 2003.79 411.372 2006.24 405.3L2009.28 397.949L1922.03 143.545H2003.84L2049.07 318.688H2051.62L2097.49 143.545H2179.78L2087.26 412.491C2082.79 425.914 2076.45 437.739 2068.24 447.967C2060.15 458.3 2049.65 466.397 2036.76 472.256C2023.98 478.116 2008.21 481.045 1989.46 481.045Z" fill="#0F172A"/>
<g clip-path="url(#clip1_1656_31)">
<path d="M130.833 179.492C131.161 134.734 148.911 91.8646 180.318 59.9746H180.26L59.0063 181.228H59.0641C58.6128 181.584 58.1872 181.97 57.7908 182.386C28.3021 211.836 10.4234 250.934 7.43594 292.503C4.4485 334.071 16.5527 375.324 41.5272 408.688L163.996 286.219L165.27 285.003C142.444 254.606 130.334 217.502 130.833 179.492V179.492Z" fill="#0C8C5E"/>
<path d="M425.257 304.971C402.05 327.714 372.919 343.479 341.185 350.469C309.452 357.458 276.393 355.39 245.778 344.501C229.455 338.707 214.114 330.451 200.286 320.019L199.013 321.292L76.5439 443.704C109.922 468.616 151.151 480.682 192.694 477.695C234.237 474.709 273.316 456.87 302.788 427.44L304.003 426.225L425.257 304.971Z" fill="#0C8C5E"/>
<path d="M477.232 181.228V16.0001C477.232 11.5818 473.65 8.00009 469.232 8.00009H304.004C281.253 7.97729 258.722 12.4497 237.705 21.1605C216.688 29.8713 197.599 42.6487 181.534 58.7589L180.319 59.9743C159.144 81.4707 143.995 108.157 136.39 137.357C150.157 133.792 164.305 131.907 178.525 131.743C216.536 131.295 253.63 143.422 284.036 166.238C311.363 186.617 332.045 214.63 343.476 246.746C355.126 279.571 356.658 315.137 347.875 348.842C377.08 341.25 403.769 326.098 425.257 304.913L426.473 303.755C442.59 287.684 455.371 268.586 464.082 247.558C472.793 226.531 477.262 203.989 477.232 181.228Z" fill="#18E299"/>
</g>
</g>
<defs>
<clipPath id="clip0_1656_31">
<rect width="2191" height="484" fill="white"/>
</clipPath>
<clipPath id="clip1_1656_31">
<rect width="470" height="470" fill="white" transform="translate(7 8)"/>
</clipPath>
</defs>
</svg>
